X: 2080
T: LADY LOUDON
C:
Q: "Strathspey."
R: Strathspey.
%R: strathspey
B: James Kerr "Merry Melodies" v.2 p.11 #80
Z: 2016 John Chambers <jc:trillian.mit.edu>
N: The beaming is odd in the 2nd strain's endings.
M: C
L: 1/8
K: C
(ue/f/) |\
vg<cg>ue vg<cg>ue | g<cg>e f<d d(e/f/) |\
g<cg>e g<cg>e | f<ag>f e<c c ::\
ue |\
vG>vcuE>uc vG>vcue>uc |
G>cE>c (A<d) D2 |\
[1 vG>vcuE>uc G>ce>c | ve<a g>ufe<c vc :|\
[2 {fg}va>vfug>ue f>de>c | e<a g>fe<c c |]
